src/assets/images/Instgram.svg

<svg width="39" height="39" viewBox="0 0 39 39" fill="none" xmlns="http://www.w3.org/2000/svg">
<g clip-path="url(#clip0)">
<path d="M19.471 8.96143C16.636 8.96143 16.2802 8.97382 15.1667 9.02449C14.0554 9.07538 13.2968 9.25132 12.6331 9.50946C11.9465 9.77608 11.3641 10.1327 10.7839 10.7132C10.2032 11.2934 9.84657 11.8758 9.57907 12.5621C9.32028 13.2261 9.14412 13.9849 9.0941 15.0957C9.0443 16.2092 9.03125 16.5652 9.03125 19.4002C9.03125 22.2352 9.04386 22.5899 9.09432 23.7034C9.14543 24.8147 9.32136 25.5732 9.57929 26.2369C9.84613 26.9235 10.2028 27.5059 10.7832 28.0861C11.3633 28.6668 11.9457 29.0243 12.6318 29.2909C13.296 29.5491 14.0547 29.725 15.1658 29.7759C16.2793 29.8266 16.6349 29.839 19.4697 29.839C22.3049 29.839 22.6596 29.8266 23.7731 29.7759C24.8844 29.725 25.6439 29.5491 26.308 29.2909C26.9944 29.0243 27.5759 28.6668 28.1559 28.0861C28.7366 27.5059 29.0932 26.9235 29.3607 26.2372C29.6174 25.5732 29.7935 24.8144 29.8457 23.7036C29.8957 22.5901 29.9088 22.2352 29.9088 19.4002C29.9088 16.5652 29.8957 16.2094 29.8457 15.0959C29.7935 13.9846 29.6174 13.2261 29.3607 12.5624C29.0932 11.8758 28.7366 11.2934 28.1559 10.7132C27.5753 10.1325 26.9946 9.77587 26.3074 9.50946C25.6419 9.25132 24.8829 9.07538 23.7716 9.02449C22.6581 8.97382 22.3036 8.96143 19.4677 8.96143H19.471ZM18.5345 10.8426C18.8125 10.8421 19.1226 10.8426 19.471 10.8426C22.2582 10.8426 22.5885 10.8526 23.6892 10.9026C24.707 10.9491 25.2594 11.1192 25.6273 11.2621C26.1145 11.4513 26.4618 11.6775 26.8269 12.0428C27.1923 12.4082 27.4185 12.7561 27.6081 13.2433C27.751 13.6108 27.9213 14.1632 27.9676 15.181C28.0176 16.2814 28.0285 16.612 28.0285 19.3978C28.0285 22.1836 28.0176 22.5142 27.9676 23.6146C27.921 24.6324 27.751 25.1848 27.6081 25.5523C27.4189 26.0395 27.1923 26.3863 26.8269 26.7515C26.4616 27.1168 26.1147 27.343 25.6273 27.5322C25.2598 27.6757 24.707 27.8454 23.6892 27.8919C22.5887 27.9419 22.2582 27.9528 19.471 27.9528C16.6836 27.9528 16.3533 27.9419 15.2528 27.8919C14.235 27.8449 13.6826 27.6749 13.3145 27.532C12.8273 27.3428 12.4793 27.1166 12.114 26.7513C11.7486 26.3859 11.5224 26.0388 11.3328 25.5515C11.1899 25.1839 11.0196 24.6315 10.9733 23.6138C10.9233 22.5133 10.9133 22.1828 10.9133 19.3952C10.9133 16.6076 10.9233 16.2788 10.9733 15.1784C11.0199 14.1606 11.1899 13.6082 11.3328 13.2402C11.522 12.7531 11.7486 12.4051 12.114 12.0398C12.4793 11.6744 12.8273 11.4482 13.3145 11.2586C13.6824 11.1151 14.235 10.9454 15.2528 10.8987C16.2158 10.8552 16.589 10.8421 18.5345 10.84V10.8426ZM25.0432 12.5758C24.3516 12.5758 23.7905 13.1363 23.7905 13.8281C23.7905 14.5196 24.3516 15.0807 25.0432 15.0807C25.7348 15.0807 26.2958 14.5196 26.2958 13.8281C26.2958 13.1365 25.7348 12.5754 25.0432 12.5754V12.5758ZM19.471 14.0395C16.5105 14.0395 14.1102 16.4397 14.1102 19.4002C14.1102 22.3607 16.5105 24.7598 19.471 24.7598C22.4315 24.7598 24.8309 22.3607 24.8309 19.4002C24.8309 16.4397 22.4313 14.0395 19.4708 14.0395H19.471ZM19.471 15.9206C21.3926 15.9206 22.9506 17.4784 22.9506 19.4002C22.9506 21.3218 21.3926 22.8798 19.471 22.8798C17.5492 22.8798 15.9914 21.3218 15.9914 19.4002C15.9914 17.4784 17.5492 15.9206 19.471 15.9206V15.9206Z" fill="#FF4000"/>
</g>
<defs>
<clipPath id="clip0">
<rect width="20.8775" height="20.8775" fill="white" transform="translate(9.03125 8.96143)"/>
</clipPath>
</defs>
</svg>

<svg width="39" height="39" fill="none" xmlns="http://www.w3.org/2000/svg"><g clip-path="url(#clip0)"><path d="M19.471 8.961c-2.835 0-3.19.013-4.304.063-1.112.051-1.87.227-2.534.485a5.11 5.11 0 0 0-1.85 1.204 5.124 5.124 0 0 0-1.204 1.85c-.259.663-.435 1.422-.485 2.533-.05 1.113-.063 1.47-.063 4.304 0 2.835.013 3.19.063 4.303.051 1.112.227 1.87.485 2.534a5.115 5.115 0 0 0 1.204 1.85c.58.58 1.163.937 1.849 1.204.664.258 1.423.434 2.534.485 1.113.05 1.469.063 4.304.063s3.19-.012 4.303-.063c1.111-.051 1.87-.227 2.535-.485a5.106 5.106 0 0 0 1.848-1.205c.58-.58.937-1.162 1.205-1.849.256-.664.433-1.423.485-2.533.05-1.114.063-1.469.063-4.304s-.013-3.19-.063-4.304c-.052-1.111-.229-1.87-.485-2.534a5.122 5.122 0 0 0-1.205-1.849 5.1 5.1 0 0 0-1.849-1.204c-.665-.258-1.424-.434-2.535-.485-1.114-.05-1.468-.063-4.304-.063h.003zm-.936 1.882h.936c2.787 0 3.117.01 4.218.06 1.018.046 1.57.216 1.938.36.488.188.835.415 1.2.78.365.365.591.713.781 1.2.143.368.313.92.36 1.938.05 1.1.06 1.431.06 4.217 0 2.786-.01 3.116-.06 4.217-.047 1.017-.217 1.57-.36 1.937-.19.488-.416.834-.781 1.2a3.228 3.228 0 0 1-1.2.78c-.367.144-.92.313-1.938.36-1.1.05-1.43.06-4.218.06-2.787 0-3.118-.01-4.218-.06-1.018-.047-1.57-.217-1.938-.36a3.233 3.233 0 0 1-1.201-.78 3.235 3.235 0 0 1-.781-1.2c-.143-.368-.313-.92-.36-1.938-.05-1.1-.06-1.431-.06-4.219 0-2.787.01-3.116.06-4.217.047-1.017.217-1.57.36-1.938.189-.487.416-.835.781-1.2a3.238 3.238 0 0 1 1.2-.781c.368-.144.921-.314 1.939-.36.963-.044 1.336-.057 3.282-.059v.003zm6.508 1.733a1.253 1.253 0 1 0 0 2.506 1.253 1.253 0 0 0 0-2.507zm-5.572 1.463a5.361 5.361 0 1 0 0 10.722 5.361 5.361 0 0 0 0-10.721zm0 1.882a3.48 3.48 0 1 1 0 6.959 3.48 3.48 0 0 1 0-6.96z" fill="#FF4000"/></g><defs><clipPath id="clip0"><path fill="#fff" transform="translate(9.031 8.961)" d="M0 0H20.878V20.878H0z"/></clipPath></defs></svg>
